data/styles/clear/style-clear/symbols/restaurant-m.svg

<svg height="24" viewBox="0 0 24 24" width="24"><g fill="none" fill-rule="evenodd"><circle cx="12" cy="12" fill="#fff" opacity=".6" r="12"/><circle cx="12" cy="12" fill="#bb9342" r="11"/><path d="m10.75 9.55v-2.94779089c0-.33259091-.2650928-.60220911-.5957127-.60220911h-.0585746c-.32900306 0-.5957127.27856255-.5957127.60220911v2.94779089h-1.25v-2.94779089c0-.33259091-.26509285-.60220911-.59571266-.60220911h-.05857468c-.32900302 0-.59571266.27856255-.59571266.60220911v2.94779089c0 1.378 1.25 2.45 2.4375 2.45l-.16221292 5.1908133c-.01396567.4469015.32885153.8091867.76778852.8091867h.1638488c.4380036 0 .7781856-.3573589.7593595-.8091867l-.2162839-5.1908133c1.25 0 2.75-1.072 2.5-2.45v-2.94779089c0-.33259091-.2650928-.60220911-.5957127-.60220911h-.0585746c-.3290031 0-.5957127.27856255-.5957127.60220911v2.94779089zm3.25 3.25h1.5v4.4549668c0 .4114705.3328986.7450332.75.7450332.4142136 0 .75-.3334731.75-.7506537v-11.2493463c-2.094 0-3.05 1.456-3 2.6z" fill="#fff"/></g></svg>

<svg width="24" height="24" viewBox="0 0 24 24">
  <g fill="none" fill-rule="evenodd">
    <circle cx="12" cy="12" r="12" fill="#FFF" opacity=".6"/>
    <circle cx="12" cy="12" r="11" fill="#BB9342"/>
    <path fill="#FFF" d="M10.75,9.55 L10.75,6.60220911 C10.75,6.2696182 10.4849072,6 10.1542873,6 L10.0957127,6 C9.76670964,6 9.5,6.27856255 9.5,6.60220911 L9.5,9.55 L8.25,9.55 L8.25,6.60220911 C8.25,6.2696182 7.98490715,6 7.65428734,6 L7.59571266,6 C7.26670964,6 7,6.27856255 7,6.60220911 L7,9.55 C7,10.928 8.25,12 9.4375,12 L9.27528708,17.1908133 C9.26132141,17.6377148 9.60413861,18 10.0430756,18 L10.2069244,18 C10.644928,18 10.98511,17.6426411 10.9662839,17.1908133 L10.75,12 C12,12 13.5,10.928 13.25,9.55 L13.25,6.60220911 C13.25,6.2696182 12.9849072,6 12.6542873,6 L12.5957127,6 C12.2667096,6 12,6.27856255 12,6.60220911 L12,9.55 L10.75,9.55 Z M14,12.8 L15.5,12.8 L15.5,17.2549668 C15.5,17.6664373 15.8328986,18 16.25,18 L16.25,18 C16.6642136,18 17,17.6665269 17,17.2493463 L17,6 C14.906,6 13.95,7.456 14,8.6 L14,12.8 Z"/>
  </g>
</svg>
